X:20
T:Kathleen Hehir's Slide
Z:from the playing of de Danann
M:12/8
E:11
R:slide
K:D
A|dcd e2d c2E EFG|~B3 BAG F2D DFA|dcd e2d c2E EFG|ABA GFE D3 z2:|
E|F2A ded c2B G3|ABA G2E B2A F3|DFA ded c2B G3|EFG ABc d3 z2:|
A|ded d2e f2d A3|fgf fed c2d ecA|ded d2e f2d A2F|EFG ABc d3 z2:|
f|a2f f2d Adf agf|g2e e2c Bcd efg|a2f f2d Adf agf|gec ABc d3 z2:|
<end>
<start>
